assets/icons/icon-facebook.svg

<svg fill="none" height="48" viewBox="0 0 48 48" width="48" xmlns="http://www.w3.org/2000/svg" xmlns:xlink="http://www.w3.org/1999/xlink"><clipPath id="a"><path d="m0 0h48v48h-48z"/></clipPath><g clip-path="url(#a)"><path clip-rule="evenodd" d="m24 48c13.2548 0 24-10.7452 24-24s-10.7452-24-24-24-24 10.7452-24 24 10.7452 24 24 24zm-24-24c0-13.2459 10.7541-24 24-24s24 10.7541 24 24c0 11.9704-8.7826 21.9057-20.25 23.7082v-16.7707h5.5922l1.064-6.9375h-6.6562v-4.502c0-1.8979.9298-3.748 3.9112-3.748h3.0263v-5.90625s-2.7465-.46875-5.3723-.46875c-5.4822 0-9.0652 3.3225-9.0652 9.3375v5.2875h-6.0938v6.9375h6.0938v16.7707c-11.46741-1.8025-20.25-11.7378-20.25-23.7082z" fill="#fff" fill-rule="evenodd"/></g></svg>

<svg width="48" height="48" viewBox="0 0 48 48" fill="none" xmlns="http://www.w3.org/2000/svg">
<g clip-path="url(#clip0)">
<path fill-rule="evenodd" clip-rule="evenodd" d="M20.25 47.7082C8.78259 45.9057 0 35.9704 0 24C0 10.7541 10.7541 0 24 0C37.2459 0 48 10.7541 48 24C48 35.9704 39.2174 45.9057 27.75 47.7082V30.9375H33.3422L34.4062 24H27.75V19.498C27.75 17.6001 28.6798 15.75 31.6612 15.75H34.6875V9.84375C34.6875 9.84375 31.941 9.375 29.3152 9.375C23.833 9.375 20.25 12.6975 20.25 18.7125V24H14.1562V30.9375H20.25V47.7082Z" fill="#181818"/>
</g>
<defs>
<clipPath id="clip0">
<rect width="48" height="48" fill="white"/>
</clipPath>
</defs>
</svg>
